src/scalable/apps/tradingview.svg

<svg width="64" height="64" fill="none" version="1.1" viewBox="0 0 64 64" xmlns="http://www.w3.org/2000/svg">
 <rect x="6" y="6" width="52" height="52" rx="8" fill="#000"/>
 <path d="m38.238 26.944c0 2.1274-1.7244 3.8519-3.8517 3.8519s-3.8519-1.7245-3.8519-3.8519c0-2.1273 1.7246-3.8518 3.8519-3.8518s3.8517 1.7245 3.8517 3.8518zm-9.5492-2.6753c0-0.5522-0.4478-1-1-1h-13.407c-0.5523 0-1 0.4478-1 1l-1e-4 5.7037c0 0.5523 0.4478 1 1 1h5.7037c0.5523 0 1 0.4477 1 1v9.2989c0 0.5523 0.4478 1 1 1h5.7038c0.5522 0 1-0.4477 1-1zm13.25-0.3874c0.1559-0.3711 0.5193-0.6126 0.9219-0.6126h6.666c0.7144 0 1.1984 0.7275 0.9224 1.3864l-7.1225 17.003c-0.1558 0.3717-0.5194 0.6136-0.9224 0.6136h-6.6891c-0.7149 0-1.1988-0.7283-0.9219-1.3874z" clip-path="url(#clipPath9)" clip-rule="evenodd" fill="#fff" fill-rule="evenodd" mask="url(#mask7)"/>
 <defs>
  <mask id="mask7" maskUnits="userSpaceOnUse">
   <path d="m54.111 8.8889h-46.222v46.222h46.222z" fill="#fff"/>
  </mask>
  <clipPath id="clipPath9">
   <rect x="6" y="6" width="52" height="52" rx="8" fill="#fff"/>
  </clipPath>
 </defs>
</svg>

<svg width="64" height="64" viewBox="0 0 64 64" fill="none" xmlns="http://www.w3.org/2000/svg">
<g clip-path="url(#clip0_6_2)">
<path d="M58 6H6V58H58V6Z" fill="black"/>
<mask id="mask0_6_2" style="mask-type:luminance" maskUnits="userSpaceOnUse" x="7" y="8" width="48" height="48">
<path d="M54.1111 8.88889H7.88889V55.1111H54.1111V8.88889Z" fill="white"/>
</mask>
<g mask="url(#mask0_6_2)">
<path d="M7.88889 8.88889H54.1111V55.1111H7.88889V8.88889Z" fill="black"/>
<path fill-rule="evenodd" clip-rule="evenodd" d="M38.2381 26.9444C38.2381 29.0718 36.5137 30.7963 34.3864 30.7963C32.2591 30.7963 30.5345 29.0718 30.5345 26.9444C30.5345 24.8171 32.2591 23.0926 34.3864 23.0926C36.5137 23.0926 38.2381 24.8171 38.2381 26.9444ZM28.6889 24.2691C28.6889 23.7169 28.2411 23.2691 27.6889 23.2691H14.2815C13.7292 23.2691 13.2815 23.7169 13.2815 24.2691L13.2814 29.9728C13.2814 30.5251 13.7292 30.9728 14.2814 30.9728H19.9851C20.5374 30.9728 20.9851 31.4205 20.9851 31.9728V41.2717C20.9851 41.824 21.4329 42.2717 21.9851 42.2717H27.6889C28.2411 42.2717 28.6889 41.824 28.6889 41.2717V24.2691ZM41.9385 23.8817C42.0944 23.5106 42.4578 23.2691 42.8604 23.2691H49.5264C50.2408 23.2691 50.7248 23.9966 50.4488 24.6555L43.3263 41.6581C43.1705 42.0298 42.8069 42.2717 42.4039 42.2717H35.7148C34.9999 42.2717 34.516 41.5434 34.7929 40.8843L41.9385 23.8817Z" fill="white"/>
</g>
</g>
<defs>
<clipPath id="clip0_6_2">
<rect x="6" y="6" width="52" height="52" rx="8" fill="white"/>
</clipPath>
</defs>
</svg>
